X:0033
M:6/8
L:1/8
Q:3/8=120
K:D
e     |fga ecA|g3  f3    |Bcd efd|c3  A2
(a/g/)|fed cac|BgB AGF   |GAB cAc|d3  D2:|

